img/ic_tradeTerminal_active.svg

<svg width="24" height="24" fill="none" xmlns="http://www.w3.org/2000/svg"><path d="M13 7.5h5v2h-5v-2zm0 7h5v2h-5v-2zM19 3H5c-1.1 0-2 .9-2 2v14c0 1.1.9 2 2 2h14c1.1 0 2-.9 2-2V5c0-1.1-.9-2-2-2zm0 16H5V5h14v14zM11 6H6v5h5V6zm-1 4H7V7h3v3zm1 3H6v5h5v-5zm-1 4H7v-3h3v3z" fill="#22D091"/></svg>

<svg width="24" height="24" viewBox="0 0 24 24" fill="none" xmlns="http://www.w3.org/2000/svg">
<path d="M13 7.5H18V9.5H13V7.5ZM13 14.5H18V16.5H13V14.5ZM19 3H5C3.9 3 3 3.9 3 5V19C3 20.1 3.9 21 5 21H19C20.1 21 21 20.1 21 19V5C21 3.9 20.1 3 19 3ZM19 19H5V5H19V19ZM11 6H6V11H11V6ZM10 10H7V7H10V10ZM11 13H6V18H11V13ZM10 17H7V14H10V17Z" fill="#22D091"/>
</svg>
